images/hamburger-menu(2).svg

<svg width="48" height="41" viewBox="0 0 48 41" fill="none" xmlns="http://www.w3.org/2000/svg">
<path fill-rule="evenodd" clip-rule="evenodd" d="M47.3333 2.66675C47.3333 3.77131 46.4379 4.66675 45.3333 4.66675H2.66667C1.56211 4.66675 0.666672 3.77131 0.666672 2.66675C0.666672 1.56219 1.56211 0.666748 2.66667 0.666748H45.3333C46.4379 0.666748 47.3333 1.56219 47.3333 2.66675Z" fill="black"/>
<path fill-rule="evenodd" clip-rule="evenodd" d="M47.3333 20.6667C47.3333 21.7713 46.4379 22.6667 45.3333 22.6667H2.66667C1.56211 22.6667 0.666672 21.7713 0.666672 20.6667C0.666672 19.5622 1.56211 18.6667 2.66667 18.6667H45.3333C46.4379 18.6667 47.3333 19.5622 47.3333 20.6667Z" fill="black"/>
<path fill-rule="evenodd" clip-rule="evenodd" d="M47.3333 38.6667C47.3333 39.7713 46.4379 40.6667 45.3333 40.6667H2.66667C1.56211 40.6667 0.666672 39.7713 0.666672 38.6667C0.666672 37.5622 1.56211 36.6667 2.66667 36.6667H45.3333C46.4379 36.6667 47.3333 37.5622 47.3333 38.6667Z" fill="black"/>
</svg>

<svg width="48" height="41" fill="none" xmlns="http://www.w3.org/2000/svg"><path fill-rule="evenodd" clip-rule="evenodd" d="M47.333 2.667a2 2 0 0 1-2 2H2.667a2 2 0 0 1 0-4h42.666a2 2 0 0 1 2 2ZM47.333 20.667a2 2 0 0 1-2 2H2.667a2 2 0 1 1 0-4h42.666a2 2 0 0 1 2 2ZM47.333 38.667a2 2 0 0 1-2 2H2.667a2 2 0 1 1 0-4h42.666a2 2 0 0 1 2 2Z" fill="#000"/></svg>
